X:6
T:Escholzmatten-Walzer GC 5- 
M:3/4
L:1/4
K:Gmaj
"G"(B,C^C) | (DB>)G | "D7"(G2F) | A3 | (A,B,C) | (DF>)E | "G"(E2D) | G3 | (B,C^C) | (Dd>)B | 
"D"(B2A) | A3 | "A7"(EFG) | (^GA^C) | "D"D>DD | Dzz :: "G"(DB,D) | "C"E3 | "G"(DB,D) | G3 | "D7"(FCE) | 
D3 | "G"(GB,E) | D3 | (DB,D) | "C"E3 | "G"(DB,D) | G3 | "D7"(FED) | (c2F) | "G"G>GG |1 Gzz :|2 "G"Gz ((3G/2A/2G/2) || [K:Cmaj]
|: "C"(E2G) | (A2G) | "G7"(F2G) | B,2 ((3G/2A/2G/2) | (F2G) | Bz ((3G/2A/2G/2) | "C"(E2G) | cz ((3G/2A/2G/2) | 
(E2G) | (A2G) | "G7"(F2G) | B,2 ((3G/2A/2G/2) | (F2G) | (B2d) | "C"c>cc |1 cz ((3G/2A/2G/2) :|2 "C"czz |] 

